X:1
T:Joy to the World
T:Regocigad! Jesus nació
T:Isaac Watts
T:arr. Juan Camilo Gómez Lizarazú
%%score 1 2 3 4
L:1/8
M:2/4
K:D
V:1 treble nm="Violin I" snm="Vln. I"
V:2 treble nm="Violin II" snm="Vln. II"
V:3 alto nm="Viola" snm="Vla."
V:4 bass nm="Violoncello" snm="Vlc."
V:1
 vd2 uc>uB | A3 G | F2 E2 | vD3 vA | uB3 uB | vc3 vc | d4- | d2 z d | dc BA | A>G Fd | (dc) (BA) | %11
 (A>G) F z | z2 z D | DD DD | C3 C | C3 (vD/C/) | D d2 B | A>G FE | D2 C2 | D2 z2 || d2 c>B | %21
 A3 G | F2 E2 | D3 A | B3 B | c3 c | d4- | d2 z2 | z"^pizz." A A z | z d d z | z f f z | z A A z | %32
 z B B z | z d d z | z c c z | c2 z"^arco" F/E/ | D d2 B | A>G FE | D2 C2 | D4 |] %40
V:2
 vF2 uA>uG | F3 E | D2 C2 | vD3 vD | uG3 uG | vE3 vE | F4- | F2 z2 | A2 A2 | F2 z2 | A2 A2 | %11
 F2 z F | FF F(F/G/) | A3 (G/F/) | EE E(E/F/) | G3 (vF/E/) | D F2 G | F3 G | F2 E2 | D2 z2 || z4 | %21
 z"^pizz" D FA | z4 | z A, DF | z4 | z A ce | z2 D2 | z F D z | z F F z | z A A z | z d d z | %31
 z F F z | D4 | D2 z"^arco" G/F/ | EE EE/F/ | G3 F/E/ | D F2 G | F3 G | F2 E2 | D4 |] %40
V:3
 vD2 uD>uD | D3 B, | A,2 G,2 | vD,3 vD | uD3 uD | vA,3 vA, | A,4- | A,2 z2 | F2 F2 | D2 z2 | %10
 F2 F2 | D2 z2 | z2 z uA, | A,A, A,A, | A,3 E | EE EvA, | uD A,2 D | D3 B, | A,2 A,2 | D,2 z2 || %20
"^pizz." z D FA | z4 | z A, Ec | z4 | z G, B,D | z4 | A,2 z2 | z A D z | D4 | D2 z"^arco" d | %30
 dc BA | A>G F2 |"^pizz" z d d z | z A A z | z G G z | E2 z"^arco" A, | D A,2 D | D3 B, | A,2 A,2 | %39
 D,4 |] %40
V:4
 vD,2 uD,>uD, | D,3 G,, | A,,2 A,,2 | vF,3 vF, | uG,3 uG, | vA,3 vA, | D,4- | D,2 z2 | D,,2 D,,2 | %9
 D,2 z2 | D,,2 D,,2 | D,2 z2 | z2 z uD, | D,D, D,D, | A,,3 A, | A,A, A,A, | D,3 D, | D,3 G, | %18
 A,2 G,2 | F,2 z2 ||"^pizz." D,4 | D,4 | A,4 | D,2 F,2 | G,,4 | A,,4 | D,F, A,D, | D2 z"^arco" D | %28
 DC B,A, | A,>G, F,2 |"^pizz." D,4 | D,2 z"^arco" F, | F,F, F,F,/G,/ | A,3 z |"^pizz." A,4 | %35
 A,2 z"^arco" A, | D,3 D, | D,3 G, | A,2 G,2 | F,4 |] %40

